; generated by PrusaSlicer 2.9.2 on 2025-07-16 at 23:56:22 UTC


;
;
; 

; external perimeters extrusion width = 0.45mm
; perimeters extrusion width = 0.45mm
; infill extrusion width = 0.45mm
; solid infill extrusion width = 0.45mm
; top infill extrusion width = 0.40mm
; support material extrusion width = 0.35mm
; first layer extrusion width = 0.42mm

M73 P0 R83
M73 Q0 S84
M201 X1000 Y1000 Z200 E5000 ; sets maximum accelerations, mm/sec^2
M203 X200 Y200 Z12 E120 ; sets maximum feedrates, mm / sec
M204 S1250 T1250 ; sets acceleration (S) and retract acceleration (R), mm/sec^2
M205 X8.00 Y8.00 Z0.40 E4.50 ; sets the jerk limits, mm/sec
M205 S0 T0 ; sets the minimum extruding and travel feed rate, mm/sec

; printing object base.obj id:0 copy 0
; stop printing object base.obj id:0 copy 0

;TYPE:Custom
M862.3 P "MK3" ; printer model check
M862.1 P0.4 ; nozzle diameter check
M115 U3.14.1 ; tell printer latest fw version
G90 ; use absolute coordinates
M83 ; extruder relative mode
M104 S255 ; set extruder temp
M140 S100 ; set bed temp
M190 S100 ; wait for bed temp
M109 S255 ; wait for extruder temp
G28 W ; home all without mesh bed level
G80 X95.8806 Y69.7395 W33.7118 H47.5543 ; mesh bed levelling

G1 Z0.2 F720
G1 Y-3 F1000 ; go outside print area
G92 E0
G1 X60 E9 F1000 ; intro line
G1 X100 E12.5 F1000 ; intro line

G92 E0
M221 S95

; Don't change E values below. Excessive value can damage the printer.

M907 E538 ; set extruder motor current
G21 ; set units to millimeters
G90 ; use absolute coordinates
M83 ; use relative distances for extrusion

M900 K0.04 ; Filament gcode LA 1.5
M900 K20 ; Filament gcode LA 1.0




M107
;LAYER_CHANGE
;Z:0.2
;HEIGHT:0.2
G1 E-.8 F2100
G1 Z.6 F720
G1 X99.017 Y75.183 F10800
G1 Z.2 F720
G1 E.8 F2100
M204 S800
;TYPE:Skirt/Brim
;WIDTH:0.42
G1 F1200
G1 X101.324 Y72.876 E.1023
G1 X101.893 Y72.466 E.02199
G1 X106.507 Y70.159 E.16174
G1 X107.486 Y69.928 E.03154
G1 X120.294 Y69.928 E.40159
G1 X121.273 Y70.159 E.03154
G1 X125.887 Y72.466 E.16174
G1 X126.456 Y72.876 E.02199
G1 X128.763 Y75.183 E.1023
G1 X129.404 Y76.731 E.05253
G1 X129.404 Y105.688 E.90793
G1 X129.173 Y106.667 E.03154
G1 X126.866 Y111.281 E.16174
G1 X126.456 Y111.85 E.02199
G1 X124.149 Y114.157 E.1023
G1 X123.58 Y114.567 E.02199
G1 X118.966 Y116.874 E.16174
G1 X117.987 Y117.105 E.03154
G1 X109.793 Y117.105 E.25692
G1 X108.814 Y116.874 E.03154
G1 X104.2 Y114.567 E.16174
G1 X103.631 Y114.157 E.02199
G1 X101.324 Y111.85 E.1023
G1 X100.914 Y111.281 E.02199
G1 X98.607 Y106.667 E.16174
G1 X98.419 Y106.118 E.01819
G1 X96.069 Y94.153 E.38232
G1 X96.069 Y81.345 E.40159
G1 X96.3 Y80.366 E.03154
G1 X98.607 Y75.752 E.16174
G1 X98.982 Y75.232 E.0201
M204 S1000
;WIPE_START
G1 F8640
G1 X99.017 Y75.183 E-.0139
G1 X101.324 Y72.876 E-.75334
G1 X101.439 Y72.793 E-.03276
;WIPE_END
G1 Z.6 F720
; printing object base.obj id:0 copy 0
G1 X108.173 Y107.359 F10800
G1 Z.2 F720
G1 E.8 F2100
M204 S800
;TYPE:Support material interface
;WIDTH:0.35
G1 F1200
G1 X108.173 Y105.751 E.04106
G1 X108.504 Y105.888 E.00915
G1 X108.68 Y105.826 E.00476
G1 X108.68 Y107.359 E.03914
G1 X109.187 Y107.359 E.01295
G1 X109.187 Y105.677 E.04295
G1 X109.694 Y105.795 E.01329
G1 X109.694 Y107.359 E.03993
G1 X110.201 Y107.359 E.01295
G1 X110.201 Y105.422 E.04946
G1 X110.377 Y105.052 E.01046
G1 X110.429 Y105.052 E.00133
G1 X110.429 Y105.853 E.02045
M204 S1000
;WIPE_START
G1 F8640
G1 X110.429 Y105.052 E-.18495
G1 X110.377 Y105.052 E-.01201
G1 X110.201 Y105.422 E-.09461
G1 X110.201 Y107.359 E-.44726
G1 X109.936 Y107.359 E-.06117
;WIPE_END
G1 Z.6 F720
G1 X109.348 Y105.168 F10800
G1 Z.2 F720
G1 E.8 F2100
M204 S800
;TYPE:Support material
;WIDTH:0.42
G1 F1200
G1 X109.62 Y105.27 E.00911
G1 X109.902 Y105.214 E.00901
G1 X109.683 Y105.428 E.0096
G1 X109.44 Y105.403 E.00766
G1 X109.302 Y105.135 E.00945
M204 S1000
G1 X109.106 Y104.918 F10800
M204 S800
G1 F1200
G1 X109.245 Y105.082 E.00674
G1 X108.992 Y105.065 E.00795
G1 X109.075 Y104.964 E.0041
M204 S1000
G1 X108.872 Y105.338 F10800
M204 S800
G1 F1200
G1 X108.477 Y105.512 E.01353
G1 X108.259 Y105.3 E.00953
G1 X108.524 Y105.347 E.00844
G1 X108.985 Y105.074 E.0168
G1 X108.894 Y105.286 E.00723
M204 S1000
;WIPE_START
G1 F8640
G1 X108.985 Y105.074 E-.05327
G1 X108.524 Y105.347 E-.12371
G1 X108.259 Y105.3 E-.06214
G1 X108.477 Y105.512 E-.07021
G1 X108.872 Y105.338 E-.09966
;WIPE_END
G1 E-.39101 F2100
G1 Z.6 F720
G1 X117.712 Y105.445 F10800
G1 Z.2 F720
G1 E.8 F2100
M204 S800
;TYPE:Support material interface
;WIDTH:0.35
G1 F1200
G1 X117.53 Y105.052 E.01106
G1 X117.351 Y105.052 E.00457
G1 X117.351 Y107.359 E.05891
G1 X117.807 Y107.359 E.01164
G1 X117.807 Y105.565 E.04581
G1 X118.162 Y105.778 E.01057
M204 S1000
G1 X118.572 Y105.253 F10800
M204 S800
;TYPE:Support material
;WIDTH:0.42
G1 F1200
G1 X118.52 Y105.375 E.00416
G1 X118.318 Y105.431 E.00657
G1 X118.15 Y105.402 E.00535
G1 X117.988 Y105.205 E.008
G1 X118.191 Y105.267 E.00666
G1 X118.585 Y105.198 E.01254
M204 S1000
G1 X118.858 Y105.009 F10800
M204 S800
G1 F1200
G1 X119.365 Y105.385 E.01979
G1 X119.593 Y105.335 E.00732
G1 X119.424 Y105.509 E.00761
G1 X119.065 Y105.349 E.01232
G1 X118.927 Y105.078 E.00954
G1 X118.674 Y105.089 E.00794
G1 X118.826 Y104.963 E.00619
M204 S1000
;WIPE_START
G1 F8640
G1 X118.674 Y105.089 E-.04559
G1 X118.927 Y105.078 E-.05847
G1 X119.065 Y105.349 E-.07022
G1 X119.424 Y105.509 E-.09075
G1 X119.593 Y105.335 E-.05601
G1 X119.365 Y105.385 E-.0539
G1 X118.858 Y105.009 E-.14575
;WIPE_END
G1 E-.27931 F2100
G1 Z.6 F720
G1 X119.482 Y107.359 F10800
G1 Z.2 F720
G1 E.8 F2100
M204 S800
;TYPE:Support material interface
;WIDTH:0.35
G1 F1200
G1 X119.658 Y107.359 E.00449
G1 X119.658 Y105.822 E.03925
G1 X119.329 Y105.865 E.00847
M73 Q0 S83
G1 X119.329 Y107.359 E.03815
G1 X118.821 Y107.359 E.01297
G1 X118.802 Y105.604 E.04481
G1 X118.569 Y105.762 E.00719
G1 X118.314 Y105.795 E.00657
G1 X118.314 Y107.359 E.03993
G1 X117.961 Y107.359 E.00901
M204 S1000
;WIPE_START
G1 F8640
G1 X118.314 Y107.359 E-.08151
G1 X118.314 Y105.795 E-.36113
G1 X118.569 Y105.762 E-.05937
G1 X118.802 Y105.604 E-.065
G1 X118.813 Y106.613 E-.23299
;WIPE_END
G1 Z.6 F720
G1 X117.654 Y91.21 F10800
G1 Z.2 F720
G1 E.8 F2100
M204 S800
G1 F1200
G1 X117.351 Y91.21 E.00774
G1 X117.351 Y89.858 E.03452
G1 X117.607 Y90.168 E.01027
G1 X117.807 Y90.275 E.00579
G1 X117.807 Y91.21 E.02387
G1 X118.314 Y91.21 E.01295
G1 X118.314 Y90.226 E.02513
G1 X118.531 Y90.071 E.00681
G1 X118.821 Y90.15 E.00767
G1 X118.821 Y91.21 E.02707
G1 X119.329 Y91.21 E.01297
G1 X119.329 Y90.184 E.0262
G1 X119.658 Y90.051 E.00906
G1 X119.658 Y91.21 E.02959
G1 X119.482 Y91.21 E.00449
M204 S1000
;WIPE_START
G1 F8640
G1 X119.658 Y91.21 E-.04064
G1 X119.658 Y90.051 E-.26762
G1 X119.329 Y90.184 E-.08194
G1 X119.329 Y91.21 E-.23691
G1 X118.821 Y91.21 E-.1173
G1 X118.821 Y90.969 E-.05559
;WIPE_END
G1 Z.6 F720
G1 X118.236 Y89.842 F10800
G1 Z.2 F720
G1 E.8 F2100
M204 S800
;TYPE:Support material
;WIDTH:0.42
G1 F1200
G1 X117.97 Y89.941 E.0089
G1 X117.817 Y89.863 E.00538
G1 X118.19 Y89.861 E.0117
M204 S1000
G1 X118.665 Y89.39 F10800
M204 S800
G1 F1200
G1 X118.863 Y89.6 E.00905
G1 X119.421 Y89.73 E.01796
G1 X119.349 Y89.821 E.00364
G1 X118.752 Y89.777 E.01877
G1 X118.554 Y89.522 E.01012
G1 X118.637 Y89.341 E.00624
M204 S1000
;WIPE_START
G1 F8640
G1 X118.554 Y89.522 E-.04598
G1 X118.752 Y89.777 E-.07455
G1 X119.349 Y89.821 E-.13822
G1 X119.421 Y89.73 E-.02679
G1 X118.863 Y89.6 E-.13229
G1 X118.665 Y89.39 E-.06664
;WIPE_END
G1 E-.31553 F2100
G1 Z.6 F720
G1 X110.355 Y91.21 F10800
G1 Z.2 F720
G1 E.8 F2100
M204 S800
;TYPE:Support material interface
;WIDTH:0.35
G1 F1200
G1 X110.429 Y91.21 E.00189
G1 X110.429 Y90.007 E.03072
G1 X110.201 Y90.243 E.00838
G1 X110.201 Y91.21 E.02469
G1 X109.694 Y91.21 E.01295
G1 X109.694 Y90.264 E.02415
G1 X109.366 Y90.079 E.00962
G1 X109.187 Y90.143 E.00485
G1 X109.187 Y91.21 E.02724
G1 X108.68 Y91.21 E.01295
G1 X108.68 Y90.179 E.02633
G1 X108.505 Y90.194 E.00448
G1 X108.288 Y90.083 E.00622
G1 X108.173 Y89.888 E.00578
G1 X108.173 Y91.21 E.03376
M204 S1000
;WIPE_START
G1 F8640
G1 X108.173 Y89.888 E-.30525
G1 X108.288 Y90.083 E-.05227
G1 X108.505 Y90.194 E-.05628
G1 X108.68 Y90.179 E-.04056
G1 X108.68 Y91.21 E-.23806
G1 X109.146 Y91.21 E-.10758
;WIPE_END
G1 Z.6 F720
G1 X109.687 Y89.825 F10800
G1 Z.2 F720
G1 E.8 F2100
M204 S800
;TYPE:Support material
;WIDTH:0.42
G1 F1200
G1 X110.075 Y89.868 E.01224
G1 X109.865 Y89.937 E.00693
G1 X109.634 Y89.805 E.00834
M204 S1000
G1 X109.316 Y89.463 F10800
M204 S800
G1 F1200
G1 X109.389 Y89.59 E.00459
G1 X109.277 Y89.572 E.00356
G1 X109.149 Y89.781 E.00768
G1 X108.578 Y89.823 E.01795
G1 X108.514 Y89.75 E.00304
G1 X109.015 Y89.642 E.01607
G1 X109.298 Y89.409 E.01149
M204 S1000
;WIPE_START
G1 F8640
G1 X109.015 Y89.642 E-.08464
G1 X108.514 Y89.75 E-.11834
G1 X108.578 Y89.823 E-.02242
G1 X109.149 Y89.781 E-.1322
G1 X109.277 Y89.572 E-.05659
G1 X109.389 Y89.59 E-.02619
G1 X109.316 Y89.463 E-.03382
;WIPE_END
G1 E-.3258 F2100
G1 Z.6 F720
G1 X120.294 Y74.424 F10800
G1 Z.2 F720
G1 E.8 F2100
M204 S800
G1 F1200
G1 X124.908 Y74.424 E.14467
G1 X124.908 Y76.731 E.07233
G1 X127.215 Y76.731 E.07233
G1 X127.215 Y105.688 E.90793
G1 X124.908 Y105.688 E.07233
G1 X124.908 Y110.303 E.1447
G1 X122.601 Y110.303 E.07233
G1 X122.601 Y112.61 E.07233
G1 X117.987 Y112.61 E.14467
G1 X117.987 Y114.917 E.07233
G1 X109.793 Y114.917 E.25692
G1 X109.793 Y112.61 E.07233
G1 X105.179 Y112.61 E.14467
G1 X105.179 Y110.303 E.07233
G1 X102.872 Y110.303 E.07233
G1 X102.872 Y105.688 E.1447
G1 X100.565 Y105.688 E.07233
G1 X100.565 Y94.153 E.36167
G1 X98.258 Y94.153 E.07233
G1 X98.258 Y81.345 E.40159
G1 X100.565 Y81.345 E.07233
G1 X100.565 Y76.731 E.14467
G1 X102.872 Y76.731 E.07233
G1 X102.872 Y74.424 E.07233
G1 X107.486 Y74.424 E.14467
G1 X107.486 Y72.117 E.07233
G1 X120.294 Y72.117 E.40159
G1 X120.294 Y74.367 E.07055
M204 S1000
G1 X108.49 Y103.119 F10800
M204 S800
G1 F1200
G1 X108.706 Y103.115 E.00677
G1 X108.971 Y103.234 E.00911
G1 X109.166 Y103.495 E.01022
G1 X109.471 Y103.191 E.0135
G1 X109.729 Y103.14 E.00825
G1 X110.007 Y103.239 E.00925
G1 X110.219 Y103.502 E.01059
G1 X110.371 Y104.149 E.02084
G1 X110.298 Y104.688 E.01705
G1 X110.793 Y104.688 E.01552
G1 X110.793 Y107.723 E.09516
G1 X107.759 Y107.723 E.09513
G1 X107.759 Y105.003 E.08528
G1 X107.947 Y104.968 E.006
G1 X107.838 Y104.655 E.01039
G1 X107.846 Y104.125 E.01662
G1 X108.04 Y103.495 E.02067
G1 X108.182 Y103.296 E.00767
G1 X108.44 Y103.144 E.00939
M204 S1000
G1 X118.904 Y103.26 F10800
M204 S800
G1 F1200
G1 X119.205 Y103.118 E.01044
G1 X119.446 Y103.13 E.00757
G1 X119.686 Y103.275 E.00879
G1 X119.832 Y103.447 E.00707
G1 X120.041 Y104.051 E.02004
G1 X120.041 Y104.779 E.02283
G1 X119.815 Y105.175 E.0143
G1 X120.021 Y105.246 E.00683
G1 X120.021 Y107.723 E.07766
G1 X116.987 Y107.723 E.09513
G1 X116.987 Y104.688 E.09516
G1 X117.596 Y104.688 E.01909
G1 X117.569 Y103.786 E.02829
G1 X117.745 Y103.373 E.01408
G1 X117.91 Y103.234 E.00676
G1 X118.353 Y103.19 E.01396
G1 X118.757 Y103.461 E.01525
G1 X118.867 Y103.303 E.00604
M204 S1000
;WIPE_START
G1 F8640
G1 X118.757 Y103.461 E-.04445
G1 X118.353 Y103.19 E-.11233
G1 X117.91 Y103.234 E-.10279
G1 X117.745 Y103.373 E-.04982
G1 X117.569 Y103.786 E-.10366
G1 X117.596 Y104.688 E-.20837
G1 X116.987 Y104.688 E-.14062
G1 X116.987 Y104.852 E-.03796
;WIPE_END
G1 Z.6 F720
G1 X119.18 Y87.729 F10800
G1 Z.2 F720
G1 E.8 F2100
M204 S800
G1 F1200
G1 X119.548 Y87.79 E.0117
G1 X119.717 Y87.963 E.00758
G1 X119.861 Y88.369 E.01351
G1 X119.839 Y89.194 E.02588
G1 X120.021 Y89.232 E.00583
G1 X120.021 Y91.573 E.0734
G1 X116.987 Y91.573 E.09513
G1 X116.987 Y88.539 E.09513
G1 X117.28 Y88.539 E.00919
G1 X117.503 Y88.042 E.01708
G1 X117.856 Y87.726 E.01485
G1 X118.227 Y87.745 E.01165
G1 X118.583 Y88.171 E.01741
G1 X118.768 Y87.912 E.00998
G1 X119.127 Y87.748 E.01238
M204 S1000
G1 X108.595 Y87.734 F10800
M204 S800
G1 F1200
G1 X108.988 Y87.805 E.01252
G1 X109.257 Y88.006 E.01053
G1 X109.346 Y88.181 E.00616
G1 X109.51 Y87.885 E.01061
G1 X109.707 Y87.763 E.00727
G1 X109.979 Y87.741 E.00856
G1 X110.295 Y87.914 E.0113
G1 X110.558 Y88.311 E.01493
G1 X110.626 Y88.531 E.00722
G1 X110.577 Y89.249 E.02256
G1 X110.793 Y89.29 E.00689
G1 X110.793 Y91.573 E.07158
G1 X107.759 Y91.573 E.09513
G1 X107.759 Y88.539 E.09513
G1 X108.027 Y88.539 E.0084
G1 X108.249 Y87.919 E.02065
G1 X108.541 Y87.751 E.01056
M204 S1000
;WIPE_START
G1 F8640
G1 X108.249 Y87.919 E-.07779
G1 X108.027 Y88.539 E-.15206
G1 X107.759 Y88.539 E-.06188
G1 X107.759 Y90.74 E-.50827
;WIPE_END
G1 Z.6 F720
G1 X126.563 Y105.519 F10800
G1 Z.2 F720
G1 E.8 F2100
M204 S800
G1 F1200
G1 X126.563 Y77.07 E.892
G1 X126.144 Y77.07 E.01314
G1 X126.144 Y105.349 E.88667
G1 X125.725 Y105.349 E.01314
G1 X125.725 Y77.07 E.88667
G1 X125.306 Y77.07 E.01314
G1 X125.306 Y105.349 E.88667
G1 X124.887 Y105.349 E.01314
G1 X124.887 Y77.07 E.88667
G1 X124.569 Y77.07 E.00997
G1 X124.569 Y74.763 E.07233
G1 X124.468 Y74.763 E.00317
G1 X124.468 Y109.963 E1.10367
G1 X124.049 Y109.963 E.01314
G1 X124.049 Y74.763 E1.10367
G1 X123.63 Y74.763 E.01314
G1 X123.63 Y109.963 E1.10367
G1 X123.211 Y109.963 E.01314
G1 X123.211 Y74.763 E1.10367
G1 X122.792 Y74.763 E.01314
G1 X122.792 Y109.963 E1.10367
G1 X122.373 Y109.963 E.01314
M73 P1 R83
M73 Q1 S83
G1 X122.373 Y74.763 E1.10367
G1 X121.954 Y74.763 E.01314
G1 X121.954 Y112.27 E1.17601
G1 X121.535 Y112.27 E.01314
M73 P1 R82
G1 X121.535 Y74.763 E1.17601
G1 X121.116 Y74.763 E.01314
G1 X121.116 Y112.27 E1.17601
G1 X120.697 Y112.27 E.01314
G1 X120.697 Y74.763 E1.17601
G1 X120.278 Y74.763 E.01314
G1 X120.278 Y112.27 E1.17601
G1 X119.859 Y112.27 E.01314
G1 X119.859 Y108.062 E.13194
G1 X119.44 Y108.062 E.01314
G1 X119.44 Y112.27 E.13194
G1 X119.021 Y112.27 E.01314
G1 X119.021 Y108.062 E.13194
G1 X118.602 Y108.062 E.01314
G1 X118.602 Y112.27 E.13194
G1 X118.183 Y112.27 E.01314
G1 X118.183 Y108.062 E.13194
G1 X117.764 Y108.062 E.01314
G1 X117.764 Y112.27 E.13194
G1 X117.648 Y112.27 E.00364
G1 X117.648 Y114.577 E.07233
G1 X117.345 Y114.577 E.0095
G1 X117.345 Y108.062 E.20427
G1 X116.926 Y108.062 E.01314
G1 X116.926 Y114.577 E.20427
G1 X116.507 Y114.577 E.01314
G1 X116.507 Y72.456 E1.32067
G1 X116.926 Y72.456 E.01314
G1 X116.926 Y88.2 E.49364
G1 X117.023 Y88.2 E.00304
G1 X117.345 Y87.708 E.01844
G1 X117.345 Y72.456 E.47822
G1 X117.764 Y72.456 E.01314
G1 X117.764 Y87.381 E.46796
G1 X118.183 Y87.403 E.01316
G1 X118.183 Y72.456 E.46865
G1 X118.602 Y72.456 E.01314
G1 X118.602 Y87.616 E.47533
G1 X119.021 Y87.426 E.01443
G1 X119.021 Y72.456 E.46937
G1 X119.44 Y72.456 E.01314
G1 X119.44 Y87.401 E.46859
G1 X119.731 Y87.492 E.00956
G1 X119.859 Y87.623 E.00574
G1 X119.859 Y72.286 E.48088
M204 S1000
G1 X119.859 Y103.2 F10800
M204 S800
G1 F1200
G1 X119.859 Y91.913 E.3539
G1 X119.44 Y91.913 E.01314
G1 X119.44 Y102.79 E.34104
G1 X119.021 Y102.829 E.01319
G1 X119.021 Y91.913 E.34226
G1 X118.602 Y91.913 E.01314
G1 X118.602 Y102.917 E.34502
G1 X118.183 Y102.841 E.01335
G1 X118.183 Y91.913 E.34264
G1 X117.764 Y91.913 E.01314
G1 X117.764 Y102.921 E.34515
G1 X117.468 Y103.163 E.01199
G1 X117.345 Y103.431 E.00925
G1 X117.345 Y91.913 E.36114
G1 X116.926 Y91.913 E.01314
M73 Q1 S82
G1 X116.926 Y104.519 E.39525
M204 S1000
G1 X116.088 Y114.747 F10800
M204 S800
G1 F1200
G1 X116.088 Y72.456 E1.326
G1 X115.669 Y72.456 E.01314
G1 X115.669 Y114.577 E1.32067
G1 X115.25 Y114.577 E.01314
G1 X115.25 Y72.456 E1.32067
G1 X114.831 Y72.456 E.01314
G1 X114.831 Y114.577 E1.32067
G1 X114.412 Y114.577 E.01314
G1 X114.412 Y72.456 E1.32067
G1 X113.993 Y72.456 E.01314
G1 X113.993 Y114.577 E1.32067
G1 X113.574 Y114.577 E.01314
G1 X113.575 Y72.456 E1.32067
G1 X113.156 Y72.456 E.01314
G1 X113.156 Y114.577 E1.32067
G1 X112.737 Y114.577 E.01314
G1 X112.737 Y72.456 E1.32067
G1 X112.318 Y72.456 E.01314
G1 X112.318 Y114.577 E1.32067
G1 X111.899 Y114.577 E.01314
G1 X111.899 Y72.456 E1.32067
G1 X111.48 Y72.456 E.01314
M73 P2 R82
M73 Q2 S82
G1 X111.48 Y114.577 E1.32067
G1 X111.061 Y114.577 E.01314
G1 X111.061 Y72.456 E1.32067
G1 X110.642 Y72.456 E.01314
G1 X110.642 Y87.807 E.48132
G1 X110.223 Y87.463 E.017
G1 X110.223 Y72.456 E.47053
G1 X109.804 Y72.456 E.01314
G1 X109.804 Y87.415 E.46903
